packages/tokens/icons/camera/size16Px.svg

<svg viewBox="0 0 16 16" fill="none" xmlns="http://www.w3.org/2000/svg" width="1em" height="1em"><path d="M11.5 4.5H12.5C13.6046 4.5 14.5 5.39543 14.5 6.5L14.5 11.5C14.5 12.6046 13.6046 13.5 12.5 13.5L3.5 13.5C2.39543 13.5 1.5 12.6046 1.5 11.5L1.50001 6.5C1.50001 5.39543 2.39544 4.5 3.50001 4.5L4.5 4.5" stroke="currentColor" stroke-linecap="round"/><path d="M11.5 4.5L10.8606 3.08759C10.6986 2.72984 10.3423 2.5 9.94957 2.5L5.91056 2.50001C5.48589 2.50001 5.10753 2.76823 4.96695 3.16896L4.49997 4.50001" stroke="currentColor"/><circle cx="8" cy="9" r="2.5" stroke="currentColor"/><circle cx="12.5" cy="6.5" r="0.25" stroke="currentColor" stroke-width="0.5"/></svg>

<svg xmlns="http://www.w3.org/2000/svg" fill="none" viewBox="0 0 16 16" width="1em" height="1em"><path stroke="currentColor" stroke-linecap="round" d="M11.5 4.5h1a2 2 0 0 1 2 2v5a2 2 0 0 1-2 2h-9a2 2 0 0 1-2-2v-5a2 2 0 0 1 2-2h1"/><path stroke="currentColor" d="m11.5 4.5-.64-1.412a1 1 0 0 0-.91-.588H5.91a1 1 0 0 0-.943.669L4.5 4.5"/><circle cx="8" cy="9" r="2.5" stroke="currentColor"/><circle cx="12.5" cy="6.5" r=".25" stroke="currentColor" stroke-width=".5"/></svg>
